src/section/s4/btn.svg

<svg width="128" height="69" viewBox="0 0 128 69" fill="none" xmlns="http://www.w3.org/2000/svg">
<rect width="128" height="69" rx="10" fill="#F06500"/>
<path d="M49.13 23.608H56.083V31.445H54.145V25.444H50.983V31.513H49.13V23.608ZM51.391 15.584H53.38V24.101H51.391V15.584ZM52.581 19.086H56.678V20.973H52.581V19.086ZM50.099 29.014H55.046V30.867H50.099V29.014ZM42.84 17.454V21.16H46.971V17.454H42.84ZM41.327 16.077H48.552V22.537H41.327V16.077ZM42.806 18.185L43.639 17.93C43.911 18.712 44.132 19.732 44.183 20.378L43.299 20.667C43.265 19.987 43.061 18.967 42.806 18.185ZM43.214 27.926L44.455 27.773C44.676 28.725 44.812 29.949 44.812 30.765L43.503 30.918C43.537 30.102 43.401 28.878 43.214 27.926ZM44.914 27.858L46.121 27.637C46.461 28.521 46.784 29.677 46.869 30.442L45.611 30.714C45.543 29.949 45.237 28.759 44.914 27.858ZM46.58 27.705L47.787 27.263C48.348 28.079 48.892 29.167 49.096 29.915L47.821 30.442C47.617 29.694 47.09 28.555 46.58 27.705ZM41.735 27.824L43.095 28.232C42.891 29.456 42.585 30.748 41.888 31.53L40.562 30.85C41.191 30.136 41.565 28.946 41.735 27.824ZM46.138 17.913L47.158 18.27C46.835 19.086 46.495 20.072 46.206 20.684L45.458 20.412C45.696 19.715 46.002 18.627 46.138 17.913ZM40.919 25.716C42.908 25.665 45.917 25.563 48.79 25.444L48.739 27.025C45.968 27.195 43.061 27.331 40.987 27.433L40.919 25.716ZM41.344 23.268H48.501V24.815H41.344V23.268ZM44.251 16.774H45.492V21.908H45.764V26.345H43.979V21.908H44.251V16.774ZM60.741 26.056H73.865V27.297H60.741V26.056ZM59.636 27.858H74.885V29.15H59.636V27.858ZM66.232 24.662H68.255V29.779C68.255 30.697 68.017 31.071 67.337 31.309C66.657 31.53 65.739 31.53 64.413 31.53C64.311 31.071 64.022 30.442 63.784 30.017C64.583 30.051 65.603 30.051 65.858 30.034C66.13 30.034 66.232 29.966 66.232 29.728V24.662ZM71.298 23.982L72.488 25.002C69.564 25.495 65.161 25.631 61.523 25.58C61.489 25.274 61.319 24.747 61.2 24.458C64.753 24.475 69.003 24.339 71.298 23.982ZM59.721 16.332H67.167V17.352H59.721V16.332ZM59.449 21.058H67.218V22.044H59.449V21.058ZM61.489 19.528V19.953H65.348V19.528H61.489ZM61.489 18.457V18.865H65.348V18.457H61.489ZM60.163 17.76H66.725V20.65H60.163V17.76ZM62.594 15.584H64.158V23.88H62.594V15.584ZM67.473 19.732H73.321V21.007H67.473V19.732ZM69.224 16.043H72.25V17.403H69.224V16.043ZM72.658 19.732H72.981L73.287 19.698L74.222 19.953C73.253 22.639 70.924 23.71 67.762 24.203C67.643 23.795 67.337 23.2 67.065 22.894C69.802 22.605 71.91 21.772 72.658 19.885V19.732ZM69.632 20.837C70.618 22.163 72.726 23.013 75.276 23.302C74.919 23.642 74.46 24.288 74.239 24.713C71.502 24.254 69.36 23.098 68.153 21.279L69.632 20.837ZM68.255 16.043H69.921V17.097C69.921 18.134 69.632 19.273 68.272 20.004C68.034 19.664 67.32 19.018 66.98 18.797C68.102 18.27 68.255 17.658 68.255 17.046V16.043ZM71.332 16.043H73.049V17.522C73.049 17.76 73.066 17.896 73.083 17.964C73.134 17.998 73.185 18.015 73.253 18.015C73.321 18.015 73.44 18.015 73.525 18.015C73.593 18.015 73.678 17.998 73.712 17.981C73.763 17.964 73.814 17.913 73.848 17.777C73.882 17.658 73.899 17.369 73.916 17.012C74.205 17.267 74.715 17.539 75.123 17.658C75.089 18.117 75.004 18.627 74.902 18.831C74.783 19.052 74.596 19.222 74.358 19.307C74.154 19.409 73.814 19.443 73.559 19.443C73.338 19.443 72.998 19.443 72.777 19.443C72.403 19.443 71.944 19.324 71.706 19.069C71.434 18.814 71.332 18.474 71.332 17.573V16.043ZM60.282 22.18H61.659V23.013H65.127V22.18H66.589V24.05H60.282V22.18ZM79.849 25.631H85.748V26.838H79.849V25.631ZM79.849 27.484H85.748V28.691H79.849V27.484ZM79.764 29.337H86.088V30.714H79.764V29.337ZM77.962 16.587H86.173V17.998H77.962V16.587ZM81.77 24.407H83.436V30.17H81.77V24.407ZM79.492 15.652H81.209V18.899H79.492V15.652ZM83.011 15.652H84.728V18.899H83.011V15.652ZM79.577 20.395V21.33H80.427V20.395H79.577ZM78.268 19.205H81.804V22.52H78.268V19.205ZM83.674 20.395V21.33H84.609V20.395H83.674ZM82.382 19.205H85.986V22.52H82.382V19.205ZM80.563 23.642H86.054V25.002H80.563V31.428H78.931V24.764L79.951 23.642H80.563ZM82.467 22.367L84.116 22.724C83.742 23.438 83.385 24.169 83.096 24.662L81.821 24.305C82.076 23.744 82.331 22.928 82.467 22.367ZM79.628 22.231L81.107 22.639C80.512 24.441 79.526 26.294 78.438 27.484C78.251 27.161 77.775 26.43 77.486 26.107C78.387 25.155 79.186 23.71 79.628 22.231ZM88.417 20.531V21.619H91.222V20.531H88.417ZM88.417 23.166V24.254H91.222V23.166H88.417ZM88.417 17.913V18.984H91.222V17.913H88.417ZM86.683 16.162H93.058V25.988H86.683V16.162ZM89.862 25.716H91.579V29.133C91.579 29.558 91.613 29.609 91.783 29.609C91.851 29.609 92.072 29.609 92.157 29.609C92.378 29.609 92.446 29.388 92.48 27.603C92.803 27.892 93.534 28.164 93.993 28.3C93.857 30.629 93.432 31.224 92.361 31.224C92.106 31.224 91.715 31.224 91.477 31.224C90.134 31.224 89.862 30.697 89.862 29.15V25.716ZM87.567 25.784H89.284C89.131 28.436 88.655 30.357 86.326 31.496C86.122 31.054 85.629 30.357 85.238 30.034C87.159 29.201 87.448 27.824 87.567 25.784ZM100.096 23.081H110.262V31.581H108.205V24.628H102.051V31.581H100.096V23.081ZM96.713 20.769H111.86V22.367H96.713V20.769ZM97.903 18.491H110.925V20.038H97.903V18.491ZM101.422 25.342H109.038V26.634H101.422V25.342ZM101.422 27.365H109.038V28.64H101.422V27.365ZM101.184 29.422H109.038V30.969H101.184V29.422ZM109.684 15.618L110.874 17.08C107.389 17.658 102.323 17.862 98.107 17.828C98.073 17.386 97.886 16.706 97.716 16.298C101.881 16.298 106.811 16.094 109.684 15.618ZM102.442 17.029L104.567 17.454C103.411 21.687 101.371 25.733 97.444 27.994C97.172 27.535 96.577 26.77 96.169 26.379C99.773 24.441 101.643 20.701 102.442 17.029ZM52.989 41.644H64.821V43.633H52.989V41.644ZM52.292 46.659H64.175V48.614H52.292V46.659ZM50.32 52.048H65.688V54.037H50.32V52.048ZM56.933 38.567H59.058V53.034H56.933V38.567ZM53.006 38.771L55.114 39.247C54.366 41.882 53.125 44.5 51.799 46.132C51.391 45.775 50.49 45.18 49.963 44.891C51.306 43.463 52.394 41.117 53.006 38.771ZM73.916 47.237H84.337V48.818H73.916V47.237ZM75.293 50.467L76.33 49.243C77.129 49.736 78.2 50.501 78.71 51.028L77.622 52.405C77.146 51.844 76.109 51.011 75.293 50.467ZM80.835 46.608L81.821 45.707C82.365 46.047 83.045 46.557 83.368 46.931L82.314 47.9C82.008 47.526 81.362 46.965 80.835 46.608ZM75.038 48.053H76.84C76.636 50.654 76.16 53.017 74.035 54.513C73.797 54.088 73.304 53.459 72.879 53.153C74.613 51.997 74.919 50.042 75.038 48.053ZM77.962 38.584H79.73C79.577 46.353 80.716 52.83 82.756 52.83C83.181 52.83 83.334 52.524 83.419 51.164C83.776 51.555 84.337 51.895 84.745 52.082C84.439 54.037 83.946 54.547 82.62 54.547C78.88 54.53 77.962 47.016 77.962 38.584ZM81.855 48.784L83.538 49.413C82.365 51.793 80.274 53.51 77.707 54.513C77.486 54.156 76.976 53.544 76.636 53.204C79.067 52.354 80.92 50.79 81.855 48.784ZM79.475 41.763L80.223 40.658C80.937 41.168 81.787 41.933 82.178 42.443L81.396 43.718C81.005 43.157 80.155 42.341 79.475 41.763ZM82.654 43.735L83.793 43.31C84.201 44.126 84.592 45.18 84.694 45.843L83.47 46.353C83.368 45.673 83.028 44.568 82.654 43.735ZM79.781 44.653C80.801 44.585 82.144 44.483 83.572 44.364L83.606 45.656C82.365 45.826 81.158 45.979 80.07 46.115L79.781 44.653ZM81.345 38.669L82.875 39.23C82.331 40.199 81.753 41.27 81.277 41.967L80.189 41.474C80.597 40.709 81.09 39.519 81.345 38.669ZM82.773 40.488L84.184 41.168C83.266 42.596 82.11 44.33 81.175 45.418L80.121 44.823C81.022 43.684 82.144 41.831 82.773 40.488ZM73.525 41.763L74.29 40.658C74.987 41.168 75.854 41.933 76.228 42.443L75.446 43.718C75.072 43.157 74.222 42.341 73.525 41.763ZM76.432 43.939L77.571 43.565C77.945 44.381 78.268 45.452 78.336 46.115L77.112 46.574C77.044 45.877 76.755 44.789 76.432 43.939ZM73.644 44.925C74.681 44.857 76.041 44.755 77.486 44.636L77.52 46.013C76.262 46.166 75.021 46.302 73.916 46.421L73.644 44.925ZM75.412 38.669L76.925 39.247C76.364 40.199 75.803 41.321 75.344 42.018L74.256 41.542C74.647 40.76 75.14 39.519 75.412 38.669ZM76.84 40.488L78.234 41.168C77.282 42.681 76.075 44.5 75.089 45.639L74.035 45.061C74.987 43.871 76.16 41.916 76.84 40.488ZM68.748 42.086H73.933V43.956H68.748V42.086ZM70.567 38.567H72.386V54.53H70.567V38.567ZM70.533 43.378L71.587 43.735C71.179 46.404 70.312 49.685 69.207 51.419C69.037 50.909 68.629 50.144 68.34 49.685C69.326 48.223 70.176 45.537 70.533 43.378ZM72.301 44.517C72.641 44.976 73.95 47.152 74.205 47.645L73.236 49.056C72.896 48.053 71.978 46.064 71.553 45.265L72.301 44.517ZM93.194 42.375V43.055H96.696V42.375H93.194ZM91.579 41.355H98.413V44.075H91.579V41.355ZM92.548 47.305V50.569H97.359V47.305H92.548ZM91.001 46.2H99.008V51.691H91.001V46.2ZM94.333 48.648V49.226H95.54V48.648H94.333ZM93.245 47.798H96.713V50.076H93.245V47.798ZM90.202 44.585H99.875V45.69H90.202V44.585ZM94.078 43.412H95.795V45.078H94.078V43.412ZM87.737 39.145H102.374V54.53H100.385V40.811H89.641V54.53H87.737V39.145ZM88.944 52.252H101.388V53.935H88.944V52.252Z" fill="white"/>
<path d="M20 41C24.4183 41 28 37.4183 28 33C28 28.5817 24.4183 25 20 25C15.5817 25 12 28.5817 12 33C12 37.4183 15.5817 41 20 41Z" stroke="white" stroke-width="2" stroke-linecap="round" stroke-linejoin="round"/>
<path d="M30.0004 42.9999L25.6504 38.6499" stroke="white" stroke-width="2" stroke-linecap="round" stroke-linejoin="round"/>
</svg>

<svg viewBox="0 0 128 69" fill="#F06500" xmlns="http://www.w3.org/2000/svg">
<path d="M10,0h108c5.5,0,10,4.5,10,10v49c0,5.5-4.5,10-10,10H10C4.5,69,0,64.5,0,59V10C0,4.5,4.5,0,10,0z"/>
<path fill="#FFF" d="M49.1,23.6h7v7.8h-1.9v-6H51v6.1h-1.9V23.6z M51.4,15.6h2v8.5h-2V15.6z M52.6,19.1h4.1V21h-4.1V19.1z M50.1,29
	H55v1.9h-4.9V29z M42.8,17.5v3.7H47v-3.7H42.8z M41.3,16.1h7.2v6.5h-7.2V16.1z M42.8,18.2l0.8-0.3c0.3,0.8,0.5,1.8,0.5,2.4l-0.9,0.3
	C43.3,20,43.1,19,42.8,18.2z M43.2,27.9l1.2-0.2c0.2,1,0.4,2.2,0.4,3l-1.3,0.2C43.5,30.1,43.4,28.9,43.2,27.9z M44.9,27.9l1.2-0.2
	c0.3,0.9,0.7,2,0.7,2.8l-1.3,0.3C45.5,29.9,45.2,28.8,44.9,27.9z M46.6,27.7l1.2-0.4c0.6,0.8,1.1,1.9,1.3,2.7l-1.3,0.5
	C47.6,29.7,47.1,28.6,46.6,27.7z M41.7,27.8l1.4,0.4c-0.2,1.2-0.5,2.5-1.2,3.3l-1.3-0.7C41.2,30.1,41.6,28.9,41.7,27.8z M46.1,17.9
	l1,0.4c-0.3,0.8-0.7,1.8-1,2.4l-0.7-0.3C45.7,19.7,46,18.6,46.1,17.9z M40.9,25.7c2-0.1,5-0.2,7.9-0.3L48.7,27
	c-2.8,0.2-5.7,0.3-7.8,0.4L40.9,25.7z M41.3,23.3h7.2v1.5h-7.2V23.3z M44.3,16.8h1.2v5.1h0.3v4.4H44v-4.4h0.3V16.8z M60.7,26.1h13.1
	v1.2H60.7V26.1z M59.6,27.9h15.2v1.3H59.6V27.9z M66.2,24.7h2v5.1c0,0.9-0.2,1.3-0.9,1.5c-0.7,0.2-1.6,0.2-2.9,0.2
	c-0.1-0.5-0.4-1.1-0.6-1.5c0.8,0,1.8,0,2.1,0c0.3,0,0.4-0.1,0.4-0.3V24.7z M71.3,24l1.2,1c-2.9,0.5-7.3,0.6-11,0.6
	c0-0.3-0.2-0.8-0.3-1.1C64.8,24.5,69,24.3,71.3,24z M59.7,16.3h7.4v1h-7.4V16.3z M59.4,21.1h7.8v1h-7.8V21.1z M61.5,19.5V20h3.9
	v-0.4H61.5z M61.5,18.5v0.4h3.9v-0.4H61.5z M60.2,17.8h6.6v2.9h-6.6V17.8z M62.6,15.6h1.6v8.3h-1.6V15.6z M67.5,19.7h5.8V21h-5.8
	V19.7z M69.2,16h3v1.4h-3V16z M72.7,19.7H73l0.3,0l0.9,0.3c-1,2.7-3.3,3.8-6.5,4.2c-0.1-0.4-0.4-1-0.7-1.3c2.7-0.3,4.8-1.1,5.6-3
	V19.7z M69.6,20.8c1,1.3,3.1,2.2,5.6,2.5c-0.4,0.3-0.8,1-1,1.4c-2.7-0.5-4.9-1.6-6.1-3.4L69.6,20.8z M68.3,16h1.7v1.1
	c0,1-0.3,2.2-1.6,2.9c-0.2-0.3-1-1-1.3-1.2c1.1-0.5,1.3-1.1,1.3-1.8V16z M71.3,16H73v1.5c0,0.2,0,0.4,0,0.4c0.1,0,0.1,0.1,0.2,0.1
	s0.2,0,0.3,0c0.1,0,0.2,0,0.2,0c0.1,0,0.1-0.1,0.1-0.2c0-0.1,0.1-0.4,0.1-0.8c0.3,0.3,0.8,0.5,1.2,0.6c0,0.5-0.1,1-0.2,1.2
	c-0.1,0.2-0.3,0.4-0.5,0.5c-0.2,0.1-0.5,0.1-0.8,0.1c-0.2,0-0.6,0-0.8,0c-0.4,0-0.8-0.1-1.1-0.4c-0.3-0.3-0.4-0.6-0.4-1.5V16z
	 M60.3,22.2h1.4V23h3.5v-0.8h1.5V24h-6.3V22.2z M79.8,25.6h5.9v1.2h-5.9V25.6z M79.8,27.5h5.9v1.2h-5.9V27.5z M79.8,29.3h6.3v1.4
	h-6.3V29.3z M78,16.6h8.2V18H78V16.6z M81.8,24.4h1.7v5.8h-1.7V24.4z M79.5,15.7h1.7v3.2h-1.7V15.7z M83,15.7h1.7v3.2H83V15.7z
	 M79.6,20.4v0.9h0.8v-0.9H79.6z M78.3,19.2h3.5v3.3h-3.5V19.2z M83.7,20.4v0.9h0.9v-0.9H83.7z M82.4,19.2H86v3.3h-3.6V19.2z
	 M80.6,23.6h5.5V25h-5.5v6.4h-1.6v-6.7l1-1.1H80.6z M82.5,22.4l1.6,0.4c-0.4,0.7-0.7,1.4-1,1.9l-1.3-0.4
	C82.1,23.7,82.3,22.9,82.5,22.4z M79.6,22.2l1.5,0.4c-0.6,1.8-1.6,3.7-2.7,4.8c-0.2-0.3-0.7-1.1-1-1.4
	C78.4,25.2,79.2,23.7,79.6,22.2z M88.4,20.5v1.1h2.8v-1.1H88.4z M88.4,23.2v1.1h2.8v-1.1H88.4z M88.4,17.9V19h2.8v-1.1H88.4z
	 M86.7,16.2h6.4V26h-6.4V16.2z M89.9,25.7h1.7v3.4c0,0.4,0,0.5,0.2,0.5c0.1,0,0.3,0,0.4,0c0.2,0,0.3-0.2,0.3-2
	c0.3,0.3,1.1,0.6,1.5,0.7c-0.1,2.3-0.6,2.9-1.6,2.9c-0.3,0-0.6,0-0.9,0c-1.3,0-1.6-0.5-1.6-2.1V25.7z M87.6,25.8h1.7
	c-0.2,2.7-0.6,4.6-3,5.7c-0.2-0.4-0.7-1.1-1.1-1.5C87.2,29.2,87.4,27.8,87.6,25.8z M100.1,23.1h10.2v8.5h-2.1v-7h-6.2v7h-2V23.1z
	 M96.7,20.8h15.1v1.6H96.7V20.8z M97.9,18.5h13V20h-13V18.5z M101.4,25.3h7.6v1.3h-7.6V25.3z M101.4,27.4h7.6v1.3h-7.6V27.4z
	 M101.2,29.4h7.9V31h-7.9V29.4z M109.7,15.6l1.2,1.5c-3.5,0.6-8.6,0.8-12.8,0.7c0-0.4-0.2-1.1-0.4-1.5
	C101.9,16.3,106.8,16.1,109.7,15.6z M102.4,17l2.1,0.4c-1.2,4.2-3.2,8.3-7.1,10.5c-0.3-0.5-0.9-1.2-1.3-1.6
	C99.8,24.4,101.6,20.7,102.4,17z M53,41.6h11.8v2H53V41.6z M52.3,46.7h11.9v2H52.3V46.7z M50.3,52h15.4v2H50.3V52z M56.9,38.6h2.1
	V53h-2.1V38.6z M53,38.8l2.1,0.5c-0.7,2.6-2,5.3-3.3,6.9c-0.4-0.4-1.3-1-1.8-1.2C51.3,43.5,52.4,41.1,53,38.8z M73.9,47.2h10.4v1.6
	H73.9V47.2z M75.3,50.5l1-1.2c0.8,0.5,1.9,1.3,2.4,1.8l-1.1,1.4C77.1,51.8,76.1,51,75.3,50.5z M80.8,46.6l1-0.9
	c0.5,0.3,1.2,0.8,1.5,1.2l-1.1,1C82,47.5,81.4,47,80.8,46.6z M75,48.1h1.8c-0.2,2.6-0.7,5-2.8,6.5c-0.2-0.4-0.7-1.1-1.2-1.4
	C74.6,52,74.9,50,75,48.1z M78,38.6h1.8c-0.2,7.8,1,14.2,3,14.2c0.4,0,0.6-0.3,0.7-1.7c0.4,0.4,0.9,0.7,1.3,0.9
	c-0.3,2-0.8,2.5-2.1,2.5C78.9,54.5,78,47,78,38.6z M81.9,48.8l1.7,0.6c-1.2,2.4-3.3,4.1-5.8,5.1c-0.2-0.4-0.7-1-1.1-1.3
	C79.1,52.4,80.9,50.8,81.9,48.8z M79.5,41.8l0.7-1.1c0.7,0.5,1.6,1.3,2,1.8l-0.8,1.3C81,43.2,80.2,42.3,79.5,41.8z M82.7,43.7
	l1.1-0.4c0.4,0.8,0.8,1.9,0.9,2.5l-1.2,0.5C83.4,45.7,83,44.6,82.7,43.7z M79.8,44.7c1-0.1,2.4-0.2,3.8-0.3l0,1.3
	c-1.2,0.2-2.4,0.3-3.5,0.5L79.8,44.7z M81.3,38.7l1.5,0.6c-0.5,1-1.1,2-1.6,2.7l-1.1-0.5C80.6,40.7,81.1,39.5,81.3,38.7z M82.8,40.5
	l1.4,0.7c-0.9,1.4-2.1,3.2-3,4.2l-1.1-0.6C81,43.7,82.1,41.8,82.8,40.5z M73.5,41.8l0.8-1.1c0.7,0.5,1.6,1.3,1.9,1.8l-0.8,1.3
	C75.1,43.2,74.2,42.3,73.5,41.8z M76.4,43.9l1.1-0.4c0.4,0.8,0.7,1.9,0.8,2.6l-1.2,0.5C77,45.9,76.8,44.8,76.4,43.9z M73.6,44.9
	c1-0.1,2.4-0.2,3.8-0.3l0,1.4c-1.3,0.2-2.5,0.3-3.6,0.4L73.6,44.9z M75.4,38.7l1.5,0.6c-0.6,1-1.1,2.1-1.6,2.8l-1.1-0.5
	C74.6,40.8,75.1,39.5,75.4,38.7z M76.8,40.5l1.4,0.7c-1,1.5-2.2,3.3-3.1,4.5L74,45.1C75,43.9,76.2,41.9,76.8,40.5z M68.7,42.1h5.2
	V44h-5.2V42.1z M70.6,38.6h1.8v16h-1.8V38.6z M70.5,43.4l1.1,0.4c-0.4,2.7-1.3,6-2.4,7.7c-0.2-0.5-0.6-1.3-0.9-1.7
	C69.3,48.2,70.2,45.5,70.5,43.4z M72.3,44.5c0.3,0.5,1.6,2.6,1.9,3.1l-1,1.4c-0.3-1-1.3-3-1.7-3.8L72.3,44.5z M93.2,42.4v0.7h3.5
	v-0.7H93.2z M91.6,41.4h6.8v2.7h-6.8V41.4z M92.5,47.3v3.3h4.8v-3.3H92.5z M91,46.2h8v5.5h-8V46.2z M94.3,48.6v0.6h1.2v-0.6H94.3z
	 M93.2,47.8h3.5v2.3h-3.5V47.8z M90.2,44.6h9.7v1.1h-9.7V44.6z M94.1,43.4h1.7v1.7h-1.7V43.4z M87.7,39.1h14.6v15.4h-2V40.8H89.6
	v13.7h-1.9V39.1z M88.9,52.3h12.4v1.7H88.9V52.3z"/>
<path stroke="#FFF" stroke-width="2" stroke-linecap="round" d="M20,41c4.4,0,8-3.6,8-8s-3.6-8-8-8s-8,3.6-8,8S15.6,41,20,41z M30,43l-4.4-4.4"/>
</svg>
